public/assets/standards/sci/resource-discuss-icon.svg

<svg xmlns="http://www.w3.org/2000/svg" width="48" height="48" fill="none" viewBox="0 0 48 48"><path fill="#006d68" d="M47.5 25.6c0-9.73-7.89-17.62-17.62-17.62S12.25 15.86 12.25 25.6s7.89 17.62 17.62 17.62c.69 0 1.36-.04 2.03-.12a7.367 7.367 0 0 0 9.64 2.18 7.3 7.3 0 0 1-2.35-3.15c-.17-.44-.3-.89-.38-1.34 5.2-3.06 8.69-8.72 8.69-15.19"/><path fill="#a5c352" d="M.5 19.36C.5 9.64 8.38 1.77 18.09 1.77c9.72 0 17.59 7.88 17.59 17.59 0 9.72-7.88 17.59-17.59 17.59-.68 0-1.36-.04-2.02-.12A7.34 7.34 0 0 1 6.45 39a7.3 7.3 0 0 0 2.73-4.48C3.99 31.47.5 25.83.5 19.36"/></svg>

<svg width="48" height="48" viewBox="0 0 48 48" fill="none" xmlns="http://www.w3.org/2000/svg">
<path d="M47.5 25.6C47.5 15.87 39.61 7.97998 29.88 7.97998C20.15 7.97998 12.25 15.86 12.25 25.6C12.25 35.34 20.14 43.22 29.87 43.22C30.56 43.22 31.23 43.18 31.9 43.1C33.8 45.81 37.37 46.98 40.59 45.73C40.92 45.6 41.24 45.45 41.54 45.28C40.52 44.49 39.69 43.42 39.19 42.13C39.02 41.69 38.89 41.24 38.81 40.79C44.01 37.73 47.5 32.07 47.5 25.6Z" fill="#006D68"/>
<path d="M0.5 19.36C0.5 9.64002 8.38 1.77002 18.09 1.77002C27.81 1.77002 35.68 9.65002 35.68 19.36C35.68 29.08 27.8 36.95 18.09 36.95C17.41 36.95 16.73 36.91 16.07 36.83C14.17 39.54 10.61 40.7 7.4 39.45C7.07 39.32 6.75 39.17 6.45 39C7.47 38.21 8.3 37.15 8.8 35.86C8.97 35.42 9.1 34.97 9.18 34.52C3.99 31.47 0.5 25.83 0.5 19.36Z" fill="#A5C352"/>
</svg>
